img/081-olives.svg

<?xml version="1.0" encoding="iso-8859-1"?>
<!-- Generator: Adobe Illustrator 19.0.0, SVG Export Plug-In . SVG Version: 6.00 Build 0)  -->
<svg xmlns="http://www.w3.org/2000/svg" xmlns:xlink="http://www.w3.org/1999/xlink" version="1.1" id="Layer_1" x="0px" y="0px" viewBox="0 0 502 502" style="enable-background:new 0 0 502 502;" xml:space="preserve" width="512" height="512">
<g>
	<g>
		<ellipse style="fill:#39B54A;" cx="109.094" cy="250.68" rx="99.094" ry="126.62"/>
		<ellipse style="fill:#C1272D;" cx="109.828" cy="174.456" rx="33.765" ry="21.287"/>
		<ellipse style="fill:#39B54A;" cx="365.38" cy="278.846" rx="126.62" ry="99.094"/>
		<ellipse style="fill:#C1272D;" cx="288.863" cy="278.112" rx="21.287" ry="33.765"/>
	</g>
	<g>
		<path d="M109.094,114.06c-29.611,0-57.292,14.534-77.945,40.923C11.062,180.649,0,214.635,0,250.68    c0,36.045,11.062,70.031,31.149,95.697c20.653,26.39,48.334,40.923,77.945,40.923s57.292-14.534,77.945-40.923    c20.087-25.666,31.149-59.652,31.149-95.697c0-36.044-11.062-70.03-31.149-95.696C166.386,128.594,138.705,114.06,109.094,114.06z     M109.094,367.3C59.967,367.3,20,314.984,20,250.68c0-64.304,39.967-116.62,89.094-116.62s89.094,52.315,89.094,116.62    C198.188,314.984,158.22,367.3,109.094,367.3z"/>
		<path d="M43.738,275.539c5.487-0.623,9.431-5.576,8.809-11.063c-0.451-3.979-0.68-8.053-0.68-12.108c0-5.523-4.477-10-10-10    s-10,4.477-10,10c0,4.805,0.272,9.637,0.808,14.363c0.579,5.104,4.905,8.874,9.924,8.874    C42.975,275.604,43.355,275.583,43.738,275.539z"/>
		<path d="M113.437,333.818c-21.886,0-42.335-15.686-53.369-40.937c-2.211-5.061-8.104-7.371-13.167-5.16    c-5.061,2.211-7.371,8.107-5.16,13.167c14.266,32.648,41.738,52.929,71.696,52.929c5.523,0,10-4.477,10-10    S118.959,333.818,113.437,333.818z"/>
		<path d="M109.828,143.169c-24.541,0-43.765,13.743-43.765,31.287s19.224,31.287,43.765,31.287s43.765-13.743,43.765-31.287    S134.369,143.169,109.828,143.169z M109.828,185.742c-14.287,0-23.765-6.793-23.765-11.287s9.479-11.287,23.765-11.287    s23.765,6.793,23.765,11.287S124.114,185.742,109.828,185.742z"/>
		<path d="M461.077,200.901c-25.667-20.087-59.652-31.149-95.697-31.149s-70.03,11.062-95.697,31.149    c-26.39,20.653-40.923,48.334-40.923,77.945s14.533,57.292,40.923,77.945c25.667,20.087,59.652,31.149,95.697,31.149    s70.03-11.062,95.697-31.149C487.467,336.138,502,308.457,502,278.846S487.467,221.554,461.077,200.901z M365.38,367.94    c-64.304,0-116.62-39.967-116.62-89.094s52.315-89.094,116.62-89.094S482,229.72,482,278.846S429.685,367.94,365.38,367.94z"/>
		<path d="M288.863,234.347c-17.544,0-31.287,19.224-31.287,43.766c0,24.541,13.743,43.765,31.287,43.765    s31.287-19.224,31.287-43.765C320.15,253.571,306.407,234.347,288.863,234.347z M288.863,301.877    c-4.493,0-11.287-9.479-11.287-23.765c0-14.287,6.793-23.766,11.287-23.766s11.287,9.479,11.287,23.766    C300.15,292.399,293.356,301.877,288.863,301.877z"/>
	</g>
</g>















</svg>

<svg xmlns="http://www.w3.org/2000/svg" version="1.1" id="Layer_1" x="0" y="0" viewBox="0 0 502 502" xml:space="preserve">
  <ellipse cx="109.09" cy="250.68" rx="99.09" ry="126.62" fill="#39b54a"/>
  <ellipse cx="109.83" cy="174.46" rx="33.77" ry="21.29" fill="#c1272d"/>
  <ellipse cx="365.38" cy="278.85" rx="126.62" ry="99.09" fill="#39b54a"/>
  <ellipse cx="288.86" cy="278.11" rx="21.29" ry="33.77" fill="#c1272d"/>
  <g>
    <path d="M109.1 114.06c-29.62 0-57.3 14.53-77.95 40.92C11.06 180.65 0 214.64 0 250.68c0 36.05 11.06 70.03 31.15 95.7 20.65 26.39 48.33 40.92 77.94 40.92s57.3-14.53 77.95-40.92c20.09-25.67 31.15-59.65 31.15-95.7 0-36.04-11.06-70.03-31.15-95.7-20.65-26.39-48.33-40.92-77.95-40.92zm0 253.24c-49.13 0-89.1-52.32-89.1-116.62 0-64.3 39.97-116.62 89.1-116.62s89.09 52.31 89.09 116.62c0 64.3-39.97 116.62-89.1 116.62z"/>
    <path d="M43.74 275.54a10 10 0 0 0 8.8-11.06c-.44-3.98-.67-8.06-.67-12.11a10 10 0 1 0-20 0c0 4.8.27 9.63.8 14.36a10 10 0 0 0 11.07 8.8z"/>
    <path d="M113.44 333.82c-21.89 0-42.34-15.69-53.37-40.94a10 10 0 1 0-18.33 8c14.27 32.66 41.74 52.94 71.7 52.94a10 10 0 1 0 0-20z"/>
    <path d="M109.83 143.17c-24.54 0-43.77 13.74-43.77 31.29s19.23 31.28 43.77 31.28 43.76-13.74 43.76-31.28-19.22-31.3-43.76-31.3zm0 42.57c-14.29 0-23.77-6.8-23.77-11.29s9.48-11.28 23.77-11.28 23.76 6.8 23.76 11.28-9.48 11.3-23.76 11.3z"/>
    <path d="M461.08 200.9c-25.67-20.09-59.65-31.15-95.7-31.15s-70.03 11.06-95.7 31.15c-26.39 20.65-40.92 48.34-40.92 77.95s14.53 57.29 40.92 77.94c25.67 20.09 59.65 31.15 95.7 31.15s70.03-11.06 95.7-31.15c26.39-20.65 40.92-48.33 40.92-77.94s-14.53-57.3-40.92-77.95zm-95.7 167.04c-64.3 0-116.62-39.97-116.62-89.1s52.31-89.09 116.62-89.09S482 229.72 482 278.85s-52.31 89.09-116.62 89.09z"/>
    <path d="M288.86 234.35c-17.54 0-31.28 19.22-31.28 43.76s13.74 43.77 31.28 43.77 31.29-19.23 31.29-43.77c0-24.54-13.74-43.76-31.29-43.76zm0 67.53c-4.49 0-11.28-9.48-11.28-23.77 0-14.28 6.79-23.76 11.28-23.76s11.29 9.48 11.29 23.76c0 14.29-6.8 23.77-11.29 23.77z"/>
  </g>
</svg>
